assets/illustrations/multisize/48/csv.svg

<svg id="704efa5e-45e1-4435-b9bc-e08ebc189590" data-name="ICONS" xmlns="http://www.w3.org/2000/svg" xmlns:xlink="http://www.w3.org/1999/xlink" viewBox="0 0 48 48"><defs><linearGradient id="c45f848a-59ce-4218-85f1-7cccd31509e3" x1="8.58668" y1="5.86411" x2="42.48928" y2="46.26765" gradientUnits="userSpaceOnUse"><stop offset="0" stop-color="#fff" stop-opacity="0"/><stop offset="0.86247" stop-color="#5e5e5e" stop-opacity="0.06315"/><stop offset="1" stop-opacity="0.1"/></linearGradient><linearGradient id="11314d38-c74c-4e57-b4f1-0c3546993351" x1="38" y1="16.90625" x2="38" y2="14.08751" gradientUnits="userSpaceOnUse"><stop offset="0" stop-color="#828282" stop-opacity="0"/><stop offset="0.86247" stop-color="#303030" stop-opacity="0.06315"/><stop offset="1" stop-opacity="0.1"/></linearGradient><linearGradient id="0e73642f-8412-4c96-b9bd-d9f63df7e479" x1="31.27" y1="12.23" x2="37.23606" y2="6.26394" gradientUnits="userSpaceOnUse"><stop offset="0" stop-color="#fff" stop-opacity="0"/><stop offset="0.44604" stop-color="#fff" stop-opacity="0.00799"/><stop offset="0.63551" stop-color="#fff" stop-opacity="0.03616"/><stop offset="0.77636" stop-color="#fff" stop-opacity="0.08493"/><stop offset="0.8924" stop-color="#fff" stop-opacity="0.15385"/><stop offset="0.99328" stop-color="#fff" stop-opacity="0.24291"/><stop offset="1" stop-color="#fff" stop-opacity="0.25"/></linearGradient><linearGradient id="290d60be-d60c-4548-b2ca-e6b8c43c7eee" x1="17.75381" y1="42.91826" x2="18.17734" y2="38.93002" gradientUnits="userSpaceOnUse"><stop offset="0" stop-color="#828282" stop-opacity="0"/><stop offset="0.99719" stop-opacity="0.2"/></linearGradient><linearGradient id="061b1624-0990-4319-a88b-d40d456a6308" x1="14" y1="39.1875" x2="14" y2="14.75839" gradientUnits="userSpaceOnUse"><stop offset="0" stop-color="#fff" stop-opacity="0"/><stop offset="0.52587" stop-color="#fff" stop-opacity="0.00735"/><stop offset="0.71529" stop-color="#fff" stop-opacity="0.03396"/><stop offset="0.8503" stop-color="#fff" stop-opacity="0.0803"/><stop offset="0.95875" stop-color="#fff" stop-opacity="0.14595"/><stop offset="1" stop-color="#fff" stop-opacity="0.18"/></linearGradient></defs><title>FileTypeIcons_Master_All_NEW</title><polygon points="43 44 13 44 13 4 34 4 43 13 43 44" fill="#fff"/><path d="M34.00049,3H12V45H44V13ZM34,4.5,42.5,13H34ZM43,44H13V4H33V14H43Z" fill="#949494"/><polygon points="4 17 24 14 24 40 4 37 4 17" fill="#217346"/><path d="M19,33H16.11813l-1.85854-3.90795a3.70538,3.70538,0,0,1-.21821-.80335h-.03009a6.62529,6.62529,0,0,1-.24831.83682L11.89691,33H9l3.43868-6L9.29345,21h2.95711l1.54252,3.59833a6.71037,6.71037,0,0,1,.32355,1.01255h.0301q.09028-.35147.3386-1.046L16.2009,21h2.70881l-3.23552,5.94979Z" fill="#fff"/><path d="M34,36H33V34.47416s-2.31286,1.75472-3.978,1.75472a3.06725,3.06725,0,0,1-2.22017-.77246A2.71587,2.71587,0,0,1,26,33.40607q0-2.737,3.13326-3.1852L33,30a2.80121,2.80121,0,0,0-3-3,3.53435,3.53435,0,0,0-3,1V27a5.05691,5.05691,0,0,1,3-1c2.4009,0,4,1.22005,4,3.64868Zm-1-5-3.48885.37859a4.12993,4.12993,0,0,0-1.7186.539A1.52146,1.52146,0,0,0,27.213,33.2859a1.46191,1.46191,0,0,0,.53456,1.16845,2.13119,2.13119,0,0,0,1.42384.45276A4.98249,4.98249,0,0,0,32,34a2.81775,2.81775,0,0,0,1-1.97292Z" fill="#8bbf8a"/><path d="M38.3145,34l-1.626,5h-1.189l1.189-5Z" fill="#8bbf8a"/><path d="M44,13,34,3H12V45H44Z" fill="url(#c45f848a-59ce-4218-85f1-7cccd31509e3)"/><rect x="33" y="14" width="10" height="3" fill="url(#11314d38-c74c-4e57-b4f1-0c3546993351)"/><polygon points="12 3 12 4 33 4 33 14 43 14 43 28 44 28 44 13 34 3 12 3" fill="url(#0e73642f-8412-4c96-b9bd-d9f63df7e479)"/><polygon points="24 43 12 43 12 38.2 24 40 24 43" fill="url(#290d60be-d60c-4548-b2ca-e6b8c43c7eee)"/><polygon points="24 14 4 17 4 37 24 40 24 14" fill="url(#061b1624-0990-4319-a88b-d40d456a6308)"/></svg>

<?xml version="1.0" encoding="utf-8"?>
<!-- Generator: Adobe Illustrator 21.1.0, SVG Export Plug-In . SVG Version: 6.00 Build 0)  -->
<svg version="1.1" xmlns="http://www.w3.org/2000/svg" xmlns:xlink="http://www.w3.org/1999/xlink" x="0px" y="0px"
	 viewBox="0 0 48 48" enable-background="new 0 0 48 48" xml:space="preserve">
<g id="TEMPLATE" display="none">
	<g display="inline">
		<path fill="#D0D0D0" d="M48,0v48H0V0H48 M49-1h-1H0h-1v1v48v1h1h48h1v-1V0V-1L49-1z"/>
	</g>
	<g display="inline" opacity="0.1">
		<path fill="#FF3A6D" d="M45,3v42H3V3H45 M48,0H0v48h48V0L48,0z"/>
	</g>
</g>
<g id="ICONS">
	<g>
		<polygon fill="#FFFFFF" points="43,44 13,44 13,4 34,4 43,13 		"/>
		<path fill="#949494" d="M34.0005,3H12v42h32V13L34.0005,3z M34,4.5l8.5,8.5H34V4.5z M43,44H13V4h20v10h10V44z"/>
	</g>
	<polygon fill="#217346" points="4,17 24,14 24,40 4,37 	"/>
	<g>
		<path fill="#FFFFFF" d="M19,33h-2.8819l-1.8585-3.9079c-0.0703-0.1449-0.143-0.4127-0.2182-0.8033h-0.0301
			c-0.0353,0.1841-0.118,0.4631-0.2483,0.8368L11.8969,33H9l3.4387-6l-3.1452-6h2.9571l1.5425,3.5983
			c0.1204,0.2845,0.2281,0.6221,0.3236,1.0126h0.0301c0.0602-0.2343,0.1731-0.5829,0.3386-1.046L16.2009,21h2.7088l-3.2355,5.9498
			L19,33z"/>
	</g>
	<g>
		<path fill="#8BBF8A" d="M34,36h-1v-1.5258c0,0-2.3129,1.7547-3.978,1.7547c-0.9455,0-1.6856-0.2575-2.2202-0.7725
			C26.2673,34.9414,26,34.258,26,33.4061c0-1.8247,1.0444-2.8864,3.1333-3.1852L33,30c0-1.6594-1-3-3-3c-1.1433,0-2,0-3,1v-1
			c1.0043-0.6103,1.6898-1,3-1c2.4009,0,4,1.22,4,3.6487V36z M33,31l-3.4889,0.3786c-0.7594,0.1017-1.3323,0.2811-1.7186,0.539
			c-0.3864,0.257-0.5795,0.7134-0.5795,1.3683c0,0.4768,0.1782,0.866,0.5346,1.1685c0.3564,0.3015,0.831,0.4528,1.4238,0.4528
			c0.8127,0,2.299-0.364,2.8286-0.9071c0.5296-0.544,1-1.1401,1-1.9729V31z"/>
		<path fill="#8BBF8A" d="M38.3145,34l-1.626,5h-1.189l1.189-5H38.3145z"/>
	</g>
	<linearGradient id="SVGID_1_" gradientUnits="userSpaceOnUse" x1="8.5867" y1="5.8641" x2="42.4893" y2="46.2676">
		<stop  offset="0" style="stop-color:#FFFFFF;stop-opacity:0"/>
		<stop  offset="0.2264" style="stop-color:#FCFCFC;stop-opacity:0.0226"/>
		<stop  offset="0.3626" style="stop-color:#F4F4F4;stop-opacity:0.0363"/>
		<stop  offset="0.475" style="stop-color:#E6E6E6;stop-opacity:0.0475"/>
		<stop  offset="0.5744" style="stop-color:#D1D1D1;stop-opacity:0.0574"/>
		<stop  offset="0.6652" style="stop-color:#B7B7B7;stop-opacity:0.0665"/>
		<stop  offset="0.7498" style="stop-color:#979797;stop-opacity:0.075"/>
		<stop  offset="0.8297" style="stop-color:#707070;stop-opacity:0.083"/>
		<stop  offset="0.9057" style="stop-color:#444444;stop-opacity:0.0906"/>
		<stop  offset="0.9761" style="stop-color:#121212;stop-opacity:0.0976"/>
		<stop  offset="1" style="stop-color:#000000;stop-opacity:0.1"/>
	</linearGradient>
	<path fill="url(#SVGID_1_)" d="M44,13L34,3H12v42h32V13z"/>
	<linearGradient id="SVGID_2_" gradientUnits="userSpaceOnUse" x1="38" y1="16.9063" x2="38" y2="14.0875">
		<stop  offset="0" style="stop-color:#828282;stop-opacity:0"/>
		<stop  offset="0.2812" style="stop-color:#7F7F7F;stop-opacity:0.0281"/>
		<stop  offset="0.4503" style="stop-color:#777777;stop-opacity:0.045"/>
		<stop  offset="0.5899" style="stop-color:#696969;stop-opacity:0.059"/>
		<stop  offset="0.7133" style="stop-color:#545454;stop-opacity:0.0713"/>
		<stop  offset="0.8259" style="stop-color:#3A3A3A;stop-opacity:0.0826"/>
		<stop  offset="0.9294" style="stop-color:#1A1A1A;stop-opacity:0.0929"/>
		<stop  offset="1" style="stop-color:#000000;stop-opacity:0.1"/>
	</linearGradient>
	<rect x="33" y="14" fill="url(#SVGID_2_)" width="10" height="3"/>
	<linearGradient id="SVGID_3_" gradientUnits="userSpaceOnUse" x1="31.27" y1="12.23" x2="37.2361" y2="6.2639">
		<stop  offset="0" style="stop-color:#FFFFFF;stop-opacity:0"/>
		<stop  offset="0.8537" style="stop-color:#FFFFFF;stop-opacity:0.2134"/>
		<stop  offset="1" style="stop-color:#FFFFFF;stop-opacity:0.25"/>
	</linearGradient>
	<polygon fill="url(#SVGID_3_)" points="12,3 12,4 33,4 33,14 43,14 43,28 44,28 44,13 34,3 	"/>
	<linearGradient id="SVGID_4_" gradientUnits="userSpaceOnUse" x1="17.7538" y1="42.9183" x2="18.1773" y2="38.93">
		<stop  offset="0" style="stop-color:#828282;stop-opacity:0"/>
		<stop  offset="0.1699" style="stop-color:#7E7E7E;stop-opacity:0.0341"/>
		<stop  offset="0.346" style="stop-color:#717171;stop-opacity:0.0694"/>
		<stop  offset="0.5248" style="stop-color:#5D5D5D;stop-opacity:0.1053"/>
		<stop  offset="0.7057" style="stop-color:#404040;stop-opacity:0.1415"/>
		<stop  offset="0.8863" style="stop-color:#1B1B1B;stop-opacity:0.1778"/>
		<stop  offset="0.9972" style="stop-color:#000000;stop-opacity:0.2"/>
	</linearGradient>
	<polygon fill="url(#SVGID_4_)" points="24,43 12,43 12,38.2 24,40 	"/>
	<linearGradient id="SVGID_5_" gradientUnits="userSpaceOnUse" x1="14" y1="39.1875" x2="14" y2="14.7584">
		<stop  offset="0" style="stop-color:#FFFFFF;stop-opacity:0"/>
		<stop  offset="0.8587" style="stop-color:#FFFFFF;stop-opacity:0.1546"/>
		<stop  offset="1" style="stop-color:#FFFFFF;stop-opacity:0.18"/>
	</linearGradient>
	<polygon fill="url(#SVGID_5_)" points="24,14 4,17 4,37 24,40 	"/>
</g>
</svg>
